src/icons/telegram.svg

<svg width="64" height="64" viewBox="0 0 64 64" fill="none" xmlns="http://www.w3.org/2000/svg">
<path d="M31.8507 8.71112e-05C23.3897 0.0395723 15.2886 3.42843 9.31973 9.42531C3.35083 15.4222 -9.21307e-05 23.539 1.89982e-09 32C1.89983e-09 40.4869 3.37141 48.6264 9.37259 54.6275C15.3738 60.6285 23.5131 64 32 64C40.4869 64 48.6261 60.6285 54.6275 54.6275C60.6285 48.6264 64 40.4869 64 32C64 23.5131 60.6285 15.3738 54.6275 9.37267C48.6261 3.37149 40.4869 8.71112e-05 32 8.71112e-05C31.9501 -2.90371e-05 31.9005 -2.90371e-05 31.8507 8.71112e-05ZM45.0827 19.2641C45.3493 19.2587 45.9387 19.3254 46.3227 19.6374C46.5779 19.859 46.7405 20.1683 46.7787 20.5041C46.8213 20.7521 46.8747 21.3201 46.832 21.7627C46.352 26.824 44.2667 39.1013 43.2053 44.768C42.7573 47.168 41.8747 47.9707 41.0187 48.048C39.1627 48.2213 37.752 46.8213 35.952 45.6427C33.136 43.7947 31.544 42.6453 28.8107 40.8427C25.6507 38.7627 27.6987 37.616 29.4987 35.7493C29.9707 35.2587 38.1573 27.8107 38.3173 27.136C38.336 27.0507 38.3547 26.736 38.168 26.5707C37.9813 26.4054 37.704 26.4614 37.504 26.5067C37.2213 26.5707 32.7227 29.5467 24.008 35.4267C22.728 36.3067 21.5733 36.7333 20.536 36.7067C19.3947 36.6853 17.1973 36.064 15.5627 35.5333C13.5573 34.88 11.9653 34.536 12.104 33.4293C12.176 32.8533 12.9707 32.264 14.4853 31.6613C23.8133 27.5973 30.032 24.9174 33.1467 23.6241C42.032 19.9281 43.88 19.2854 45.0827 19.2641Z" fill="#333333"/>
</svg>

<svg xmlns="http://www.w3.org/2000/svg" fill="none" viewBox="0 0 64 64"><defs/><path fill="#333" d="M31.85 0a32 32 0 10.3 64 32 32 0 00-.3-64zm13.23 19.26c.27 0 .86.07 1.24.38.26.22.42.53.46.86.04.25.1.82.05 1.26-.48 5.06-2.56 17.34-3.62 23-.45 2.4-1.34 3.21-2.2 3.29-1.85.17-3.26-1.23-5.06-2.4-2.81-1.86-4.4-3-7.14-4.8-3.16-2.09-1.11-3.23.69-5.1.47-.5 8.66-7.94 8.82-8.61.02-.09.03-.4-.15-.57-.19-.16-.47-.1-.67-.06-.28.06-4.78 3.04-13.5 8.92-1.27.88-2.43 1.3-3.46 1.28-1.15-.02-3.34-.65-4.98-1.18-2-.65-3.6-1-3.46-2.1.08-.58.87-1.17 2.39-1.77 9.32-4.06 15.54-6.74 18.66-8.04 8.88-3.7 10.73-4.33 11.93-4.36z"/></svg>
